src/assets/icons/fa/mobile-phone.svg

<?xml version="1.0" encoding="utf-8"?>
<svg width="1792" height="1792" viewBox="0 0 1792 1792" xmlns="http://www.w3.org/2000/svg"><path d="M976 1408q0-33-23.5-56.5t-56.5-23.5-56.5 23.5-23.5 56.5 23.5 56.5 56.5 23.5 56.5-23.5 23.5-56.5zm208-160v-704q0-13-9.5-22.5t-22.5-9.5h-512q-13 0-22.5 9.5t-9.5 22.5v704q0 13 9.5 22.5t22.5 9.5h512q13 0 22.5-9.5t9.5-22.5zm-192-848q0-16-16-16h-160q-16 0-16 16t16 16h160q16 0 16-16zm288-16v1024q0 52-38 90t-90 38h-512q-52 0-90-38t-38-90v-1024q0-52 38-90t90-38h512q52 0 90 38t38 90z"/></svg>

<svg width="1792" height="1792" xmlns="http://www.w3.org/2000/svg"><path d="M976 1408q0-33-23.5-56.5T896 1328t-56.5 23.5T816 1408t23.5 56.5T896 1488t56.5-23.5T976 1408zm208-160V544q0-13-9.5-22.5T1152 512H640q-13 0-22.5 9.5T608 544v704q0 13 9.5 22.5t22.5 9.5h512q13 0 22.5-9.5t9.5-22.5zM992 400q0-16-16-16H816q-16 0-16 16t16 16h160q16 0 16-16zm288-16v1024q0 52-38 90t-90 38H640q-52 0-90-38t-38-90V384q0-52 38-90t90-38h512q52 0 90 38t38 90z"/></svg>
